icons/railsserializerfiles.svg

<svg xmlns="http://www.w3.org/2000/svg" viewBox="0 0 16 16"><path fill="#fbc02d" d="M2.516 15h6.833a15.2 15.2 0 0 1-1.13-6.725 5.37 5.37 0 0 1 4.29-4.841 2.6 2.6 0 0 1 2.184.733L15 3.7a6.4 6.4 0 0 0-4.6-1.858 6.94 6.94 0 0 0-5.444 4.052 19.2 19.2 0 0 0-2.183 5.757A10.7 10.7 0 0 0 2.516 15m-1.362-3.506 1.336.106-.231 1.359L1 12.8Zm2.107-2.879.359-1.021-1.181-.471-.385 1.1ZM4.93 5.109l.694-.837-.9-.6-.719.811Zm1.824-3.245.617.759.848-.5-.619-.704ZM9.76 1l.154.759 1.053-.026-.1-.68Zm3.57.811-.03.471.719.393.154-.236Zm-.154 2.015v.393l.694.081v-.317Zm-2.209.34.333.629.489-.395-.1-.419Zm-1.053.811.514.785-.308.55-.746-.837ZM8.886 7.15l-.334.68.874.759.205-.864Zm-.359 2.381-.051.916 1.079.471-.055-.864Zm.308 3.245.257.942 1.361.082-.488-1.024z" data-iconColor="Rails Serializer Files"/></svg>

<!--
  - The MIT License (MIT)
  -
  - Copyright (c) 2015-2024 Elior "Mallowigi" Boukhobza
  -
  - Permission is hereby granted, free of charge, to any person obtaining a copy
  - of this software and associated documentation files (the "Software"), to deal
  - in the Software without restriction, including without limitation the rights
  - to use, copy, modify, merge, publish, distribute, sublicense, and/or sell
  - copies of the Software, and to permit persons to whom the Software is
  - furnished to do so, subject to the following conditions:
  -
  - The above copyright notice and this permission notice shall be included in all
  - copies or substantial portions of the Software.
  -
  - THE SOFTWARE IS PROVIDED "AS IS", WITHOUT WARRANTY OF ANY KIND, EXPRESS OR
  - IMPLIED, INCLUDING BUT NOT LIMITED TO THE WARRANTIES OF MERCHANTABILITY,
  - FITNESS FOR A PARTICULAR PURPOSE AND NONINFRINGEMENT. IN NO EVENT SHALL THE
  - AUTHORS OR COPYRIGHT HOLDERS BE LIABLE FOR ANY CLAIM, DAMAGES OR OTHER
  - LIABILITY, WHETHER IN AN ACTION OF CONTRACT, TORT OR OTHERWISE, ARISING FROM,
  - OUT OF OR IN CONNECTION WITH THE SOFTWARE OR THE USE OR OTHER DEALINGS IN THE
  - SOFTWARE.
  -
  -->

<svg xmlns="http://www.w3.org/2000/svg" width="16px" height="16px" viewBox="0 0 16 16">
  <path fill="#fbc02d" data-iconColor="Rails Serializer Files"
        d="M2.516,15H9.349a15.2,15.2,0,0,1-1.13-6.725,5.367,5.367,0,0,1,4.29-4.841,2.592,2.592,0,0,1,2.184.733L15,3.7a6.387,6.387,0,0,0-4.6-1.858A6.943,6.943,0,0,0,4.956,5.894a19.219,19.219,0,0,0-2.183,5.757A10.681,10.681,0,0,0,2.516,15ZM1.154,11.494L2.49,11.6,2.259,12.959,1,12.8ZM3.261,8.615L3.62,7.594,2.439,7.123l-0.385,1.1ZM4.93,5.109l0.694-.837-0.9-.6-0.719.811ZM6.754,1.864L7.371,2.623l0.848-.5L7.6,1.419ZM9.76,1L9.914,1.759l1.053-.026-0.1-.68ZM13.33,1.811L13.3,2.282l0.719,0.393,0.154-.236ZM13.176,3.826V4.219L13.87,4.3V3.983Zm-2.209.34L11.3,4.795,11.789,4.4l-0.1-.419Zm-1.053.811,0.514,0.785-0.308.55L9.374,5.475ZM8.886,7.15l-0.334.68L9.426,8.589l0.205-.864ZM8.527,9.531l-0.051.916,1.079,0.471L9.5,10.054Zm0.308,3.245,0.257,0.942L10.453,13.8,9.965,12.776H8.835Z"
  />
</svg>
